X: 3113
T: Beare Island
R: reel
M: 4/4
K: Ddorian
A^F|:DA^FA GFDd|cAAG ~A2dA|~c3A GEcE|FAGE FcGE|
~D3E FEFG|~A3G Ad~d2|fedc Afed|cAGc ADDA:|
|:DAde fedc|~A2GE cEFG|~A2de fedc|AdcA defe|
decA GEcE|FA~A2 GEcE|FA~A2 GEcG|EcGE D3A:|

